!!!OTL: Zhouzongli shicha gongshelai
!!!ARE: Asia, China,ÿHubei Macheng
!! I, 363
!!!SCT: C2129
!!!YEM: Copyright 1995, estate of Helmut Schaffrath.
**kern
*ICvox
*Ivox
*M2/4
*k[]
*C:
{8a
8ee
16dd
16ee
16dd
16cc
=1
16dd
16ee
4.a
=2
8a
8ee
16dd
16ee
16dd
16cc
=3
16a
16cc
4.dd}
=4
{16cc
16a
4cc
8dd
=5
8gg
16ee
16dd
4ee
=6
8a
8ee
16dd
16ee
16dd
16cc
=7
16a
16cc
4.dd}
=8
{8.ee
16dd
4ee
=9
8dd
8ee
8gg
8ee
=10
8.dd
16ee}
{16dd
16ee
16dd
16cc
=11
16a
16cc
4g
8a
=12
8cc
8ee
16a
16g
16a
16cc
=13
2g}
==
!!!AGN: Xiaodiao, Daochunlai diao
!!!ONB: ESAC (Essen Associative Code) Database: SENGANSU
!!!AMT: simple duple
!!!AIN: vox
!!!EED: Helmut Schaffrath
!!!EEV: 1.0
*-
